X: 37119
T: Simple Gifts
R: reel
M: 4/4
K: Cmajor
|c2cd ecef|g2gg e2dc|d2d2 d2d2|dedB G2G2|
cBcd e2dd|e2f2 g3g|d2de d2cc|d2cB c4|
g4 e3d|efed c3d|e2ef g2e2|d2de d3G|
c4 c3d|e2ef g2gg|d2d2 e2ed|c2c2 c4||

